src/pos-icons/lumx.svg

<svg height="24" viewBox="0 0 24 24" width="24" xmlns="http://www.w3.org/2000/svg"><path d="m12.35 1.75 7.78 7.78-6.36 6.36-1.42-1.42 4.95-4.94-6.36-6.37zm3.54 7.78-1.42 1.41-4.24-4.24-4.95 4.95-1.41-1.42 6.36-6.36zm-5.66-1.42 1.42 1.42-4.95 4.94 6.36 6.37-1.41 1.41-7.78-7.78zm-2.12 6.36 1.42-1.41 4.24 4.24 4.95-4.95 1.41 1.42-6.36 6.36z"/></svg>

<?xml version="1.0" encoding="UTF-8"?><!DOCTYPE svg PUBLIC "-//W3C//DTD SVG 1.1//EN" "http://www.w3.org/Graphics/SVG/1.1/DTD/svg11.dtd"><svg xmlns="http://www.w3.org/2000/svg" xmlns:xlink="http://www.w3.org/1999/xlink" version="1.1" id="mdi-lumx" width="24" height="24" viewBox="0 0 24 24"><path d="M12.35,1.75L20.13,9.53L13.77,15.89L12.35,14.47L17.3,9.53L10.94,3.16L12.35,1.75M15.89,9.53L14.47,10.94L10.23,6.7L5.28,11.65L3.87,10.23L10.23,3.87L15.89,9.53M10.23,8.11L11.65,9.53L6.7,14.47L13.06,20.84L11.65,22.25L3.87,14.47L10.23,8.11M8.11,14.47L9.53,13.06L13.77,17.3L18.72,12.35L20.13,13.77L13.77,20.13L8.11,14.47Z" /></svg>
